X: 6
T: The Boys Of Portaferry
R: reel
M: 4/4
L: 1/8
K: Gmaj
G3B AGAB|GBAG GEDE|G2GB AGAB|dBGB c2BA|
G3B AGAB|GBAG GEDE|G2GB AGAB|dBAF GGG2|
Bdgd edgd|Bdgd edcA|Bdgd (3efg fa|gedB c2cA|
Bdgd edgd|Bdgd edcA|Bded gbaf|gbdB c2BA|


Tune 1436	Setting 14813

